svgs/regular/message-sms.svg

<svg xmlns="http://www.w3.org/2000/svg" viewBox="0 0 512 512"><!--! Font Awesome Pro 6.0.0-alpha3 by @fontawesome - https://fontawesome.com License - https://fontawesome.com/license (Commercial License) --><path d="M448-.0004H64c-35.25 0-64 28.75-64 63.1v287.1c0 35.25 28.75 63.1 64 63.1h96v83.98c0 9.836 11.02 15.55 19.12 9.7L304 415.1H448c35.25 0 64-28.75 64-63.1V63.1C512 28.75 483.3-.0004 448-.0004zM464 352c0 8.75-7.25 16-16 16h-160l-80 60v-60H64c-8.75 0-16-7.25-16-16V64c0-8.75 7.25-16 16-16h384c8.75 0 16 7.25 16 16V352zM124.4 192.6C113.6 189.5 103.2 187.2 104.2 181.5c.7813-4.5 10.28-6.562 21.5-4.906c4.156 .6562 8.75 2.094 13.09 3.594c8.375 2.906 17.47-1.562 20.34-9.906c2.875-8.344-1.562-17.47-9.906-20.34C143.1 147.8 136.5 145.9 130.6 145c-30.69-4.812-53.94 7.719-58 31.09c-5.656 33.03 26.5 42.47 38.63 46c13.72 3.947 25.62 6.432 24.56 12.34C135 239 125.7 241.1 114.3 239.4C107.9 238.4 100.4 235.4 93.38 232.9c-8.375-2.969-16 1.875-18.97 10.19S77.19 261.1 85.5 264.1C92.81 266.8 101.1 269.8 109.4 271C113.7 271.7 117.9 272 121.1 272c24.28 0 41.94-12.03 45.38-32.13C173.1 206.5 141.4 197.5 124.4 192.6zM396.4 192.6C385.6 189.5 375.2 187.2 376.2 181.5c.7813-4.5 10.31-6.562 21.5-4.906c4.156 .6562 8.75 2.094 13.09 3.594c8.406 2.906 17.47-1.562 20.34-9.906c2.875-8.344-1.562-17.47-9.906-20.34c-6.156-2.125-12.69-4.062-18.59-4.969c-30.75-4.812-53.97 7.719-58 31.09c-5.656 33.03 26.5 42.47 38.63 46c13.72 3.947 25.62 6.432 24.56 12.34c-.7813 4.562-10.12 6.656-21.56 4.938c-6.342-.9883-13.9-3.939-20.88-6.438c-8.375-2.969-16 1.875-18.97 10.19s2.781 17.97 11.09 20.97c7.312 2.656 15.62 5.656 23.88 6.906C385.7 271.7 389.9 272 393.1 272c24.28 0 41.94-12.03 45.38-32.13C445.1 206.5 413.4 197.5 396.4 192.6zM309.1 144.8c-6.469-2.062-13.72 .0625-17.88 5.594L256 197.3L220.8 150.4C216.7 144.9 209.4 142.7 202.9 144.8C196.4 147 192 153.1 192 160v96c0 8.844 7.156 16 16 16S224 264.8 224 256V208l19.19 25.59c6.062 8.062 19.56 8.062 25.62 0L288 208V256c0 8.844 7.156 16 16 16S320 264.8 320 256V160C320 153.1 315.6 147 309.1 144.8z"/></svg>

<svg xmlns="http://www.w3.org/2000/svg" viewBox="0 0 512 512"><!-- Font Awesome Pro 6.0.0-alpha2 by @fontawesome - https://fontawesome.com License - https://fontawesome.com/license (Commercial License) --><path d="M448 0H64C28.75 0 0 28.75 0 64V352.002C0 387.252 28.75 416.002 64 416.002H160V500.002C160 509.838 171.023 515.479 179.125 509.627L304 416.002H448C483.25 416.002 512 387.252 512 352.002V64C512 28.75 483.25 0 448 0ZM464 352.002C464 360.752 456.75 368.002 448 368.002H288L208 428.002V368.002H64C55.25 368.002 48 360.752 48 352.002V64C48 55.25 55.25 48 64 48H448C456.75 48 464 55.25 464 64V352.002ZM124.406 192.594C113.611 189.51 103.164 187.164 104.188 181.531C104.969 177.031 114.469 174.969 125.688 176.625C129.844 177.281 134.438 178.719 138.781 180.219C147.156 183.125 156.25 178.656 159.125 170.313S157.562 152.844 149.219 149.969C143.062 147.844 136.531 145.906 130.625 145C99.937 140.188 76.687 152.719 72.625 176.094C66.969 209.125 99.125 218.562 111.25 222.094C124.969 226.041 136.865 228.525 135.812 234.438C135.031 239 125.656 241.094 114.25 239.375C107.908 238.387 100.354 235.436 93.375 232.938C85 229.969 77.375 234.813 74.406 243.125S77.188 261.094 85.5 264.094C92.812 266.75 101.125 269.75 109.375 271C113.719 271.688 117.938 272 121.969 272C146.25 272 163.906 259.969 167.344 239.875C173.125 206.531 141.438 197.469 124.406 192.594ZM396.406 192.594C385.611 189.51 375.164 187.164 376.188 181.531C376.969 177.031 386.5 174.969 397.688 176.625C401.844 177.281 406.438 178.719 410.781 180.219C419.188 183.125 428.25 178.656 431.125 170.313S429.563 152.844 421.219 149.969C415.063 147.844 408.531 145.906 402.625 145C371.875 140.188 348.656 152.719 344.625 176.094C338.969 209.125 371.125 218.563 383.25 222.094C396.969 226.041 408.865 228.525 407.812 234.438C407.031 239 397.688 241.094 386.25 239.375C379.908 238.387 372.354 235.436 365.375 232.938C357 229.969 349.375 234.813 346.406 243.125S349.188 261.094 357.5 264.094C364.812 266.75 373.125 269.75 381.375 271C385.719 271.688 389.938 272 393.969 272C418.25 272 435.906 259.969 439.344 239.875C445.125 206.531 413.438 197.469 396.406 192.594ZM309.062 144.812C302.594 142.75 295.344 144.875 291.187 150.406L256 197.344L220.812 150.406C216.656 144.875 209.438 142.719 202.938 144.812C196.406 147 192 153.125 192 160V256C192 264.844 199.156 272 208 272S224 264.844 224 256V208L243.188 233.594C249.25 241.656 262.75 241.656 268.812 233.594L288 208V256C288 264.844 295.156 272 304 272S320 264.844 320 256V160C320 153.125 315.594 147 309.062 144.812Z"/></svg>
